dist/assets/icons/icon/logo.svg

<svg width="100" height="100" viewBox="0 0 100 100" fill="none" xmlns="http://www.w3.org/2000/svg"><path d="m46.5 53.75-3.711-7.5h18.354v7.5H46.5Z" fill="#000"/><path d="M66 50c0-9-5-18.5-16-19.25-2 0-7.3.05-14.5 5.25l-6-9c2-2 9.5-6 20.5-5.5 5.333-.333 17.8 1.5 25 11.5 1.667 2.5 4.9 9.4 4.5 17 .4 7.6-2.833 14.5-4.5 17-7.2 10-19.667 11.833-25 11.5C39 79 31.5 75 29.5 73l5.5-9.5C41.5 69 48 69 50 69c11-.75 16-10 16-19Z" fill="#000"/><path fill-rule="evenodd" clip-rule="evenodd" d="M0 50C0 22 22 0 50 0s50 22 50 50-22 50-50 50S0 78 0 50Zm9.5 0C9.5 28 28 9.5 50 9.5S90.5 28 90.5 50 72 90.5 50 90.5 9.5 72 9.5 50Z" fill="#000"/></svg>

<svg width="100" height="100" viewBox="0 0 100 100" fill="none" xmlns="http://www.w3.org/2000/svg">
<path d="M46.5 53.75L42.7889 46.25H61.143V53.75H46.5Z" fill="black"/>
<path d="M66 50C66 41 61 31.5 50 30.75C48 30.75 42.7 30.8 35.5 36L29.5 27C31.5 25 39 21 50 21.5C55.3333 21.1667 67.8 23 75 33C76.6667 35.5 79.9 42.4 79.5 50C79.9 57.6 76.6667 64.5 75 67C67.8 77 55.3333 78.8333 50 78.5C39 79 31.5 75 29.5 73L35 63.5C41.5 69 48 69 50 69C61 68.25 66 59 66 50Z" fill="black"/>
<path fill-rule="evenodd" clip-rule="evenodd" d="M0 50C-5.03406e-10 22 22 0 50 0C78 5.0386e-10 100 22 100 50C100 78 78 100 50 100C22 100 -5.03406e-10 78 0 50ZM9.5 50C9.5 28 28 9.5 50 9.5C72 9.5 90.5 28 90.5 50C90.5 72 72 90.5 50 90.5C28 90.5 9.5 72 9.5 50Z" fill="black"/>
</svg>
